X: 1741
T: My Polly
C:Thomas Edward Bulch, Ballarat, Vic
B: australian traditional tunes wiki
M:3/4
L:1/8
R: Waltz
Q: 1/4=100
K:D
V:1 
"D"d4 c2|"Em"B6|B4 A2|"D"F6|A2 F2 D2|A,4 B,2|"A7"C6-|C4 z2|
"A7"E4 ^D2|E6|"D"F4 ^E2|F6|"A7"E4 d2|c4 B2|"D"A6-|A2 B2 c2|
"D"d4 c2|"Em"B6|B4 A2|"D"F6|F2 E2 D2|F2 G2 A2|"G"B6-|B2 =c2 ^c2|
"D"d4 B2|"A7"G4 E2|A6-|A2 ^G2 A2|"G" B6|"A7"c6|"D"d6-|d2 z4||
|:(3ded|"Em"c2 z2 g2|g2 z2 (3BcB|"D" A2 z2 f2|f2 z2 (3ABA|"A7"G2 z2 e2|e2 z2 (3GAG|"D"F4 B2|"A7"A2 z2 (3ded|
"Em"c2 z2 g2| g2 z2 (3BcB|"D"A2 z2 f2| f2 z2 f2|1ee e2 c2|"D"dd d2 ^G2|"A7"A6|A2 z2:|2"A7"eee2B2|c3BA2|"D"d6-|d2 z2||
% abcbook-tune_id 6342d53ada8d72c44f589d4e


% abcbook-boost 0
% abcbook-tablature 
% abcbook-transpose 
% abcbook-lastupdated 1665324381242
% abcbook-soundfonts 
% abcbook-repeats 1
% NFF Book 2022
% Bush Traditions recording played by Ray Mulligan

